Otagle3/Assets/ikonySvG/SpisIlustracji.svg

<?xml version="1.0" encoding="UTF-8" standalone="no"?>
<svg
   xmlns:osb="http://www.openswatchbook.org/uri/2009/osb"
   xmlns:dc="http://purl.org/dc/elements/1.1/"
   xmlns:cc="http://creativecommons.org/ns#"
   xmlns:rdf="http://www.w3.org/1999/02/22-rdf-syntax-ns#"
   xmlns:svg="http://www.w3.org/2000/svg"
   xmlns="http://www.w3.org/2000/svg"
   id="svg47"
   version="1.1"
   viewBox="0 0 52.758294 52.758296"
   height="199.40143"
   width="199.40143">
  <defs
     id="defs42">
    <pattern
       id="EMFhbasepattern"
       patternUnits="userSpaceOnUse"
       width="6"
       height="6"
       x="0"
       y="0" />
    <marker
       style="overflow:visible"
       id="Arrow1Mend-5-0"
       refX="0"
       refY="0"
       orient="auto">
      <path
         transform="matrix(-0.4,0,0,-0.4,-4,0)"
         style="fill:#000000;fill-opacity:1;fill-rule:evenodd;stroke:#000000;stroke-width:1.00000003pt;stroke-opacity:1"
         d="M 0,0 5,-5 -12.5,0 5,5 Z"
         id="path1146-3-3" />
    </marker>
    <marker
       style="overflow:visible"
       id="Arrow1Mend-5-3"
       refX="0"
       refY="0"
       orient="auto">
      <path
         transform="matrix(-0.4,0,0,-0.4,-4,0)"
         style="fill:#000000;fill-opacity:1;fill-rule:evenodd;stroke:#000000;stroke-width:1.00000003pt;stroke-opacity:1"
         d="M 0,0 5,-5 -12.5,0 5,5 Z"
         id="path1146-3-9" />
    </marker>
    <marker
       orient="auto"
       refY="0"
       refX="0"
       id="Arrow1Mend-5-0-4"
       style="overflow:visible">
      <path
         id="path1146-3-3-8"
         d="M 0,0 5,-5 -12.5,0 5,5 Z"
         style="fill:#ffffff;fill-opacity:1;fill-rule:evenodd;stroke:#ffffff;stroke-width:1.00000003pt;stroke-opacity:1"
         transform="matrix(-0.4,0,0,-0.4,-4,0)" />
    </marker>
    <marker
       orient="auto"
       refY="0"
       refX="0"
       id="Arrow1Mend-5-3-8"
       style="overflow:visible">
      <path
         id="path1146-3-9-5"
         d="M 0,0 5,-5 -12.5,0 5,5 Z"
         style="fill:#ffffff;fill-opacity:1;fill-rule:evenodd;stroke:#ffffff;stroke-width:1.00000003pt;stroke-opacity:1"
         transform="matrix(-0.4,0,0,-0.4,-4,0)" />
    </marker>
    <marker
       style="overflow:visible"
       id="Arrow1Mend"
       refX="0"
       refY="0"
       orient="auto">
      <path
         transform="matrix(-0.4,0,0,-0.4,-4,0)"
         style="fill:#000000;fill-opacity:1;fill-rule:evenodd;stroke:#000000;stroke-width:1.00000003pt;stroke-opacity:1"
         d="M 0,0 5,-5 -12.5,0 5,5 Z"
         id="path1146" />
    </marker>
    <marker
       orient="auto"
       refY="0"
       refX="0"
       id="Arrow1Mend-5"
       style="overflow:visible">
      <path
         id="path1146-3"
         d="M 0,0 5,-5 -12.5,0 5,5 Z"
         style="fill:#ffffff;fill-opacity:1;fill-rule:evenodd;stroke:#ffffff;stroke-width:1.00000003pt;stroke-opacity:1"
         transform="matrix(-0.4,0,0,-0.4,-4,0)" />
    </marker>
    <marker
       style="overflow:visible"
       id="Arrow1Mstart"
       refX="0"
       refY="0"
       orient="auto">
      <path
         transform="matrix(0.4,0,0,0.4,4,0)"
         style="fill:#000000;fill-opacity:1;fill-rule:evenodd;stroke:#000000;stroke-width:1.00000003pt;stroke-opacity:1"
         d="M 0,0 5,-5 -12.5,0 5,5 Z"
         id="path1143" />
    </marker>
    <marker
       orient="auto"
       refY="0"
       refX="0"
       id="Arrow1Mstart-1"
       style="overflow:visible">
      <path
         id="path1143-7"
         d="M 0,0 5,-5 -12.5,0 5,5 Z"
         style="fill:#ffffff;fill-opacity:1;fill-rule:evenodd;stroke:#ffffff;stroke-width:1.00000003pt;stroke-opacity:1"
         transform="matrix(0.4,0,0,0.4,4,0)" />
    </marker>
    <marker
       style="overflow:visible"
       id="Arrow1Lend"
       refX="0"
       refY="0"
       orient="auto">
      <path
         transform="matrix(-0.8,0,0,-0.8,-10,0)"
         style="fill:#000000;fill-opacity:1;fill-rule:evenodd;stroke:#000000;stroke-width:1.00000003pt;stroke-opacity:1"
         d="M 0,0 5,-5 -12.5,0 5,5 Z"
         id="path1140" />
    </marker>
    <marker
       style="overflow:visible"
       id="Arrow1Lstart"
       refX="0"
       refY="0"
       orient="auto">
      <path
         transform="matrix(0.8,0,0,0.8,10,0)"
         style="fill:#000000;fill-opacity:1;fill-rule:evenodd;stroke:#000000;stroke-width:1.00000003pt;stroke-opacity:1"
         d="M 0,0 5,-5 -12.5,0 5,5 Z"
         id="path1137" />
    </marker>
    <marker
       orient="auto"
       refY="0"
       refX="0"
       id="Arrow1Lend-5"
       style="overflow:visible">
      <path
         id="path1140-4"
         d="M 0,0 5,-5 -12.5,0 5,5 Z"
         style="fill:#ffffff;fill-opacity:1;fill-rule:evenodd;stroke:#ffffff;stroke-width:1.00000003pt;stroke-opacity:1"
         transform="matrix(-0.8,0,0,-0.8,-10,0)" />
    </marker>
    <marker
       orient="auto"
       refY="0"
       refX="0"
       id="Arrow1Lstart-93"
       style="overflow:visible">
      <path
         id="path1137-7"
         d="M 0,0 5,-5 -12.5,0 5,5 Z"
         style="fill:#ffffff;fill-opacity:1;fill-rule:evenodd;stroke:#ffffff;stroke-width:1.00000003pt;stroke-opacity:1"
         transform="matrix(0.8,0,0,0.8,10,0)" />
    </marker>
    <linearGradient
       id="linearGradient4460"
       osb:paint="solid">
      <stop
         style="stop-color:#db3b3b;stop-opacity:1;"
         offset="0"
         id="stop4458" />
    </linearGradient>
  </defs>
  <metadata
     id="metadata45">
    <rdf:RDF>
      <cc:Work
         rdf:about="">
        <dc:format>image/svg+xml</dc:format>
        <dc:type
           rdf:resource="http://purl.org/dc/dcmitype/StillImage" />
        <dc:title></dc:title>
      </cc:Work>
    </rdf:RDF>
  </metadata>
  <g
     id="g8556"
     transform="translate(49.836509,-375.23204)">
    <g
       id="g5305">
      <g
         id="g5534"
         transform="translate(-1630.2798,406.95595)">
        <rect
           y="-31.749987"
           x="1580.2939"
           height="52.916668"
           width="52.950603"
           id="rect833-4-4-4-3-7-6-0-7-8-3"
           style="fill:#db3b3b;fill-opacity:1;stroke:#000000;stroke-width:0.50015801;stroke-linecap:round;stroke-miterlimit:4;stroke-dasharray:none;stroke-opacity:1;paint-order:fill markers stroke" />
        <text
           id="text983-1-5-6-98-2-6-5-2-3-4"
           y="19.152004"
           x="1606.3315"
           style="font-size:6.35203981px;line-height:1.25;font-family:voestalpine;-inkscape-font-specification:voestalpine;letter-spacing:0px;word-spacing:0px;fill:#ffffff;fill-opacity:1;stroke-width:0.26466799"
           xml:space="preserve"
           transform="scale(1.0003206,0.9996795)"><tspan
             style="font-size:6.35203981px;text-align:center;text-anchor:middle;fill:#ffffff;fill-opacity:1;stroke-width:0.26466799"
             y="19.152004"
             x="1606.3315"
             id="tspan2495-3-9-7">Spis ilustracji</tspan></text>
        <rect
           style="fill:#ffffff;fill-opacity:1;stroke:none;stroke-width:0.323001;stroke-linecap:round;stroke-miterlimit:4;stroke-dasharray:none;stroke-opacity:1;paint-order:fill markers stroke"
           id="rect3008"
           width="29.230133"
           height="3.875819"
           x="1592.1542"
           y="-25.354317"
           ry="1.7764167" />
        <g
           style="fill:#ffffff;fill-opacity:1"
           id="g3038"
           transform="matrix(0.33495435,0,0,0.33495435,1590.2668,-25.5504)">
          <g
             id="g3022"
             data-name="Olympus pen"
             style="fill:#ffffff;fill-opacity:1">
            <path
               id="path3012"
               d="M 8.7535045,65.71143 H 74.071865 a 4.72682,4.72682 0 0 0 4.71778,-4.71827 V 22.958 a 4.72632,4.72632 0 0 0 -4.71778,-4.71778 H 8.7535045 a 4.72632,4.72632 0 0 0 -4.71777,4.71778 v 38.03516 a 4.72677,4.72677 0 0 0 4.71777,4.71827 z M 75.990815,62.9126 a 2.70507,2.70507 0 0 1 -1.91895,0.79883 H 8.7535045 a 2.72743,2.72743 0 0 1 -2.71777,-2.71827 V 54.5 H 22.035735 a 0.49982,0.49982 0 0 0 0.3963,-0.19513 l 9.618,-12.50342 10.36027,12.51734 a 0.50006,0.50006 0 0 0 0.75843,0.01391 l 5.85961,-6.57306 5.62775,6.56574 A 0.49827,0.49827 0 0 0 55.035735,54.5 h 21.75391 v 6.49316 a 2.706,2.706 0 0 1 -0.79883,1.91944 z M 6.8345045,21.03882 a 2.7054,2.7054 0 0 1 1.919,-0.79865 H 74.071865 a 2.727,2.727 0 0 1 2.71778,2.71783 V 53.5 h -21.524 l -5.85028,-6.82544 a 0.50005,0.50005 0 0 0 -0.75287,-0.0073 l -5.853,6.56561 -10.38857,-12.5517 a 0.5,0.5 0 0 0 -0.78149,0.014 L 21.789515,53.5 H 6.0357345 V 22.958 a 2.70522,2.70522 0 0 1 0.79877,-1.91918 z"
               style="fill:#ffffff;fill-opacity:1" />
            <path
               id="path3014"
               d="m 83.83594,29.439 a 0.5,0.5 0 0 0 -0.5,0.5 V 66.34277 A 3.22745,3.22745 0 0 1 80.11816,69.561 h -63.9541 a 0.5,0.5 0 1 0 0,1 h 63.9541 a 4.22707,4.22707 0 0 0 4.21778,-4.21827 V 29.939 a 0.5,0.5 0 0 0 -0.5,-0.5 z"
               style="fill:#ffffff;fill-opacity:1" />
            <path
               id="path3016"
               d="M 94.5,77.042 V 43 a 0.5,0.5 0 0 0 -1,0 v 34.042 a 3.22692,3.22692 0 0 1 -3.21777,3.21778 H 29 a 0.5,0.5 0 0 0 0,1 H 90.28223 A 4.22669,4.22669 0 0 0 94.5,77.042 Z"
               style="fill:#ffffff;fill-opacity:1" />
            <path
               id="path3018"
               d="m 88.918,37.5 a 0.5,0.5 0 0 0 -0.5,0.5 v 33.69238 a 3.22692,3.22692 0 0 1 -3.21777,3.21778 H 23 a 0.5,0.5 0 0 0 0,1 H 85.2002 A 4.22669,4.22669 0 0 0 89.418,71.69238 V 38 a 0.5,0.5 0 0 0 -0.5,-0.5 z"
               style="fill:#ffffff;fill-opacity:1" />
            <path
               id="path3020"
               d="M 63,38.49994 A 6.5,6.5 0 1 0 56.5,32 6.5004,6.5004 0 0 0 63,38.49994 Z M 59.111,28.111 A 5.49955,5.49955 0 1 1 57.5,32 5.4808,5.4808 0 0 1 59.111,28.111 Z"
               style="fill:#ffffff;fill-opacity:1" />
          </g>
        </g>
      </g>
    </g>
  </g>
</svg>

<svg id="SVGRoot" width="206px" height="206px" version="1.1" viewBox="0 0 206 206" xmlns="http://www.w3.org/2000/svg">
 <g transform="matrix(3.7795 0 0 3.7795 -1795.2 2502.6)">
  <flowRoot fill="black" font-family="sans-serif" font-size="40px" letter-spacing="0px" word-spacing="0px" style="line-height:1.25" xml:space="preserve"><flowRegion><rect x="-392.69" y="-63.57" width="758.02" height="397.52"/></flowRegion><flowPara/></flowRoot>
  <flowRoot fill="black" font-family="sans-serif" font-size="40px" letter-spacing="0px" word-spacing="0px" style="line-height:1.25" xml:space="preserve"><flowRegion><rect x="-251.87" y="-84.492" width="624.44" height="455.45"/></flowRegion><flowPara/></flowRoot>
  <flowRoot fill="black" font-family="sans-serif" font-size="40px" letter-spacing="0px" word-spacing="0px" style="line-height:1.25" xml:space="preserve"><flowRegion><rect x="-202.78" y="-50.695" width="473.96" height="281.64"/></flowRegion><flowPara/></flowRoot>
  <flowRoot fill="black" font-family="sans-serif" font-size="40px" letter-spacing="0px" word-spacing="0px" style="line-height:1.25" xml:space="preserve"><flowRegion><rect x="-86.906" y="-78.859" width="516.61" height="410.39"/></flowRegion><flowPara/></flowRoot>
  <flowRoot fill="black" font-family="sans-serif" font-size="40px" letter-spacing="0px" word-spacing="0px" style="line-height:1.25" xml:space="preserve"><flowRegion><rect x="-81.273" y="-32.188" width="309" height="322.68"/></flowRegion><flowPara/></flowRoot>
  <flowRoot fill="black" font-family="sans-serif" font-size="40px" letter-spacing="0px" word-spacing="0px" style="line-height:1.25" xml:space="preserve"><flowRegion><rect x="-90.93" y="-68.398" width="392.69" height="252.67"/></flowRegion><flowPara/></flowRoot>
  <g transform="translate(675.17 -.21291)">
   <flowRoot fill="black" font-family="sans-serif" font-size="40px" letter-spacing="0px" word-spacing="0px" style="line-height:1.25" xml:space="preserve"><flowRegion><rect x="-100.59" y="-53.109" width="462.7" height="369.35"/></flowRegion><flowPara/></flowRoot>
   <g transform="translate(57.194 .21291)">
    <flowRoot fill="black" font-family="sans-serif" font-size="40px" letter-spacing="0px" word-spacing="0px" style="line-height:1.25" xml:space="preserve"><flowRegion><rect x="-329.12" y="-12.07" width="696.05" height="259.91"/></flowRegion><flowPara/></flowRoot>
    <g transform="translate(-1836.7 -629.38)">
     <rect x="1580.3" y="-31.75" width="52.951" height="52.917" fill="#db3b3b" stroke="#000" stroke-linecap="round" stroke-width=".50016" style="paint-order:fill markers stroke"/>
     <text transform="scale(1.0003 .99968)" x="1606.3315" y="16.611044" fill="#ffffff" font-family="voestalpine" font-size="6.352px" letter-spacing="0px" stroke-width=".26467" word-spacing="0px" style="line-height:1.25" xml:space="preserve"><tspan x="1606.3315" y="16.611044" fill="#ffffff" font-size="4.9389px" stroke-width=".26467" text-align="center" text-anchor="middle">Spis ilustracji</tspan></text>
     <rect x="1592.2" y="-25.354" width="29.23" height="3.8758" ry="1.7764" fill="#fff" style="paint-order:fill markers stroke"/>
     <g transform="matrix(.33495 0 0 .33495 1590.3 -25.55)" fill="#fff">
      <g fill="#fff" data-name="Olympus pen">
       <path d="m8.7535 65.711h65.318a4.7268 4.7268 0 004.7178-4.7183v-38.035a4.7263 4.7263 0 00-4.7178-4.7178h-65.318a4.7263 4.7263 0 00-4.7178 4.7178v38.035a4.7268 4.7268 0 004.7178 4.7183zm67.237-2.7988a2.7051 2.7051 0 01-1.919.79883h-65.318a2.7274 2.7274 0 01-2.7178-2.7183v-6.4932h16a.49982.49982 0 00.3963-.19513l9.618-12.503 10.36 12.517a.50006.50006 0 00.75843.01391l5.8596-6.5731 5.6278 6.5657a.49827.49827 0 00.37964.17462h21.754v6.4932a2.706 2.706 0 01-.79883 1.9194zm-69.156-41.874a2.7054 2.7054 0 011.919-.79865h65.318a2.727 2.727 0 012.7178 2.7178v30.542h-21.524l-5.8503-6.8254a.50005.50005 0 00-.75287-.0073l-5.853 6.5656-10.389-12.552a.5.5 0 00-.78149.014l-9.8499 12.805h-15.754v-30.542a2.7052 2.7052 0 01.79877-1.9192z"/>
       <path d="m83.836 29.439a.5.5 0 00-.5.5v36.404a3.2274 3.2274 0 01-3.2178 3.2182h-63.954a.5.5 0 100 1h63.954a4.2271 4.2271 0 004.2178-4.2183v-36.404a.5.5 0 00-.5-.5z"/>
       <path d="m94.5 77.042v-34.042a.5.5 0 00-1 0v34.042a3.2269 3.2269 0 01-3.2178 3.2178h-61.282a.5.5 0 000 1h61.282a4.2267 4.2267 0 004.2178-4.2178z"/>
       <path d="m88.918 37.5a.5.5 0 00-.5.5v33.692a3.2269 3.2269 0 01-3.2178 3.2178h-62.2a.5.5 0 000 1h62.2a4.2267 4.2267 0 004.2178-4.2178v-33.692a.5.5 0 00-.5-.5z"/>
       <path d="m63 38.5a6.5 6.5 0 10-6.5-6.4999 6.5004 6.5004 0 006.5 6.4999zm-3.889-10.389a5.4996 5.4996 0 11-1.611 3.889 5.4808 5.4808 0 011.611-3.889z"/>
      </g>
     </g>
    </g>
   </g>
  </g>
 </g>
</svg>
